assets/images/add.svg

<svg fill="none" height="40" viewBox="0 0 40 40" width="40" xmlns="http://www.w3.org/2000/svg" xmlns:xlink="http://www.w3.org/1999/xlink"><mask id="a" height="40" maskUnits="userSpaceOnUse" width="40" x="0" y="0"><path d="m0 0h40v40h-40z" fill="#1f0f39"/></mask><g mask="url(#a)"><path d="m18.333 31.6667v-10h-9.99999v-3.3334h9.99999v-9.99997h3.3333v9.99997h10v3.3334h-10v10z" fill="#1f0f39"/></g></svg>

<svg width="40" height="40" viewBox="0 0 40 40" fill="none" xmlns="http://www.w3.org/2000/svg">
<mask id="mask0_303_5728" style="mask-type:alpha" maskUnits="userSpaceOnUse" x="0" y="0" width="40" height="40">
<rect width="40" height="40" fill="#1F0F39"/>
</mask>
<g mask="url(#mask0_303_5728)">
<path d="M18.333 31.6667V21.6667H8.33301V18.3333H18.333V8.33333H21.6663V18.3333H31.6663V21.6667H21.6663V31.6667H18.333Z" fill="#1F0F39"/>
</g>
</svg>
